X: 1005
T: Drill: V Arpeggios Down
C: Grossi
M: 4/4
L: 1/4
%%staves (S1V1 S1V2) | (S2V1 S2V2)
V: S1V1 clef=treble
V: S1V2
V: S2V1 clef=bass
V: S2V2
K: C
[V: S1V1] [Q:1/4=80] c G E C | d A F D | e B G E | f c A F | F A c f | E G B e | D F A d | C4 |]
[V: S1V2] A E C A, | B F D B, | C G E C | D A F D | D F A D | C E G C | B, D F B | A,4 |]
[V: S2V1] F C A, F, | G D B, G, | A E C A, | B F D B, | B, D F B | A, C E A | G, B, D G | F,4 |]
[V: S2V2] D A, F, D, | E B, G, E, | F C A, F, | G D B, G, | G, B, D G | F, A, C F | E, G, B, E | D,4 |]

